X:6011
T:Four Up
R:March
C:Barry Goodman, 2001
O:England, Morris
Z:Paul Hardy's Session Tunebook 2015 (see www.paulhardy.net). Creative Commons cc by-nc-sa licenced.
M:4/4
L:1/8
Q:1/4=140
K:Em
"Em"E2 EF G2 GA|BA GB-BA G2|"Am"AF AB "D"AG F2|"Em"E2 F2 G2 F2|
"Em"E2 EF G2 GA|BA GB-BA G2|"Am"AF AB "D"AG F2|"Em"G2 F2 E4:|
|:"C"c2 c c2 c c2|"Em"BA GB-BA G2|"Am"AF AB "D"AG F2|"Em"G2 A2 B4|
"C"c2 c c2 c c2|"Em"BA GB-BA G2|"Am"AF AB "D"AG F2|"Em"G2 F2 E4:|

